X:900
T:Reel 900
M:4/4
K:Gmaj
L:1/8
a|gdBd ecBG|cBAB ceag|fdef gabc'|d'bc'a bggf|gdBd gdBd|cBAB cdef|gefd ecdB|cBdc BGG|c|Bdgd Bded|Bdgd BAAc|BcBd edef|gedc BGGc|BcBd edcB|cBcd eAAc|BGBd egfa|gfef gd|
